src/assets/wed_icon/icon_28/alarm_default.svg

<svg width="28" height="28" viewBox="0 0 28 28" fill="none" xmlns="http://www.w3.org/2000/svg">
<path fill-rule="evenodd" clip-rule="evenodd" d="M4.26512 16.2436C3.61815 17.8431 4.19887 19.6766 5.64867 20.6119C10.7332 23.8923 17.2672 23.8923 22.3517 20.6119C23.8015 19.6766 24.3822 17.8431 23.7352 16.2436L22.8443 14.0411C22.7188 13.7309 22.6543 13.3994 22.6543 13.0648V10.6542C22.6543 5.8746 18.7797 2 14.0002 2C9.2206 2 5.346 5.8746 5.346 10.6542V13.0648C5.346 13.3994 5.2815 13.7309 5.15603 14.0411L4.26512 16.2436ZM21.1543 13.0648V10.6542C21.1543 6.70303 17.9513 3.5 14.0002 3.5C10.049 3.5 6.846 6.70303 6.846 10.6542V13.0648C6.846 13.5922 6.74434 14.1146 6.54658 14.6035L5.65567 16.8061C5.27868 17.7381 5.61706 18.8065 6.46186 19.3515C11.0513 22.3124 16.9491 22.3124 21.5385 19.3515C22.3833 18.8065 22.7217 17.7381 22.3447 16.8061L21.4538 14.6035C21.256 14.1146 21.1543 13.5922 21.1543 13.0648Z" fill="#A9AABC"/>
<path d="M14 26C16.2091 26 18 24.2091 18 22H10C10 24.2091 11.7909 26 14 26Z" fill="#A9AABC"/>
</svg>

<svg xmlns="http://www.w3.org/2000/svg" width="28" height="28" fill="none"><path fill="#A9AABC" fill-rule="evenodd" d="M4.265 16.244a3.594 3.594 0 0 0 1.384 4.368 15.4 15.4 0 0 0 16.703 0 3.594 3.594 0 0 0 1.383-4.368l-.89-2.203a2.6 2.6 0 0 1-.19-.976v-2.41a8.654 8.654 0 1 0-17.309 0v2.41c0 .334-.064.666-.19.976zm16.89-3.18v-2.41a7.154 7.154 0 1 0-14.309 0v2.41c0 .528-.102 1.05-.3 1.54l-.89 2.202c-.377.932-.039 2 .806 2.546a13.9 13.9 0 0 0 15.077 0 2.094 2.094 0 0 0 .806-2.546l-.891-2.203a4.1 4.1 0 0 1-.3-1.538" clip-rule="evenodd"/><path fill="#A9AABC" d="M14 26a4 4 0 0 0 4-4h-8a4 4 0 0 0 4 4"/></svg>
